X: 1
T: Chi Mi Na Morbheanna , Smile In Your Sleep
M: 3/4
L: 1/8
R: waltz
K: Amin
A3 A3|e2 e  e>dB|G3 G3|B>AB A>GA|
c3 d3|e>fg B>AG|A>Be d>cB|A3 A3:|
e3 e3|d>eg e>dB|G2 G d2 B|e2 e  d>cB|
A3 c3|e>fg B>AG|A>Be d>cB|A3 A3:|
